public/img/Projects/Future_logo.svg

<svg width="224" height="45" viewBox="0 0 224 45" fill="none" xmlns="http://www.w3.org/2000/svg">
<path d="M15.0808 43.9365C13.0824 43.9418 11.1032 43.5459 9.25992 42.7722C7.41662 41.9984 5.74651 40.8625 4.34811 39.4314C2.94147 38.0122 1.83228 36.3252 1.08586 34.4698C0.339423 32.6145 -0.0291626 30.6281 0.00180093 28.6277C0.00180093 21.2178 5.64905 13.5338 15.0808 13.5338H25.4292C25.9914 10.0016 27.7979 6.78827 30.5211 4.47709C33.2443 2.16591 36.7037 0.91 40.2717 0.936948V5.8348C36.5759 5.8348 31.5939 8.25038 30.4038 13.5485H40.2643V18.4465H30.1303V28.6425C30.1613 30.6429 29.7927 32.6293 29.0463 34.4847C28.2998 36.3401 27.1907 38.027 25.784 39.4462C24.3879 40.8711 22.722 42.0022 20.8841 42.7732C19.0462 43.5443 17.0732 43.9397 15.0808 43.9365ZM15.0808 18.4316C8.05132 18.4316 4.88771 24.404 4.88771 28.6425C4.86773 29.9978 5.11911 31.3435 5.62694 32.5996C6.13478 33.8558 6.88879 34.997 7.84437 35.956C8.789 36.9232 9.91728 37.6912 11.1626 38.2142C12.408 38.7373 13.7454 39.005 15.0956 39.0016C16.446 39.0058 17.7835 38.7384 19.0291 38.2153C20.2746 37.6922 21.4028 36.9239 22.3468 35.956C23.3024 34.997 24.0564 33.8558 24.5643 32.5996C25.0722 31.3435 25.3235 29.9978 25.3035 28.6425V18.3946L15.0808 18.4316Z" fill="#EEE4CE"/>
<path d="M60.2715 43.5911V41.6535L63.5644 41.1718V3.75398L60.2715 3.27242V1.33483H81.9913C84.6257 1.33483 86.4807 1.03311 87.5564 0.429688L90.8494 13.3479L88.5773 13.9015C87.54 12.0119 86.5923 10.4434 85.7343 9.1959C84.9241 8.00345 83.9576 6.92707 82.8612 5.99608C81.7477 5.08161 80.4678 4.39528 79.0935 3.9755C77.4121 3.48149 75.6663 3.24717 73.9153 3.28067C72.8786 3.26795 71.8472 3.43082 70.8639 3.76236V20.542H74.3956C76.225 20.542 77.5614 19.9884 78.4047 18.8812C79.2481 17.774 79.8262 16.2146 80.139 14.2032H82.0599V29.4743H80.139C79.8591 27.1787 79.2911 25.4376 78.4349 24.2511C77.5787 23.0645 76.2323 22.4712 74.3956 22.4712H70.8639V41.1829L74.1568 41.6644V43.602L60.2715 43.5911Z" fill="#EEE4CE"/>
<path d="M99.2852 35.7437C99.2511 36.585 99.4147 37.4225 99.7627 38.1878C100.053 38.7802 100.498 39.2815 101.05 39.6382C101.58 39.9763 102.168 40.211 102.784 40.3302C103.425 40.454 104.077 40.5153 104.73 40.5129C105.478 40.51 106.221 40.377 106.925 40.1199C107.621 39.8832 108.276 39.5396 108.868 39.1012C109.367 38.7379 109.811 38.3013 110.182 37.8058C110.456 37.482 110.624 37.0808 110.662 36.6571V21.7487C110.662 20.3813 110.481 19.4956 110.114 19.0942C109.746 18.6929 108.975 18.4299 107.778 18.3109V16.6805L116.634 13.8433V37.2605C116.634 38.5892 116.817 39.4647 117.183 39.8873C117.539 40.308 118.319 40.582 119.515 40.7011V42.3314L113.053 44.4434C112.532 43.8765 112.117 43.2203 111.826 42.5058C111.474 41.6224 111.184 40.7151 110.959 39.7905C109.848 41.2479 108.426 42.4342 106.799 43.2615C105.224 44.0439 103.339 44.436 101.146 44.4379C100.237 44.432 99.3356 44.2692 98.4812 43.9563C97.5501 43.6137 96.689 43.1024 95.9401 42.4477C95.1228 41.7431 94.4674 40.8675 94.0192 39.8817C93.5186 38.7507 93.2731 37.5217 93.3002 36.2834V21.7376C93.3002 20.3702 93.1173 19.4854 92.7514 19.0832C92.3919 18.6818 91.6153 18.4188 90.4189 18.2998V16.6805L99.2742 13.8433L99.2852 35.7437Z" fill="#EEE4CE"/>
<path d="M120.766 17.3946V14.6792H124.059V6.35033L130.044 2.90967V14.6792H136.805V17.3946H130.044V37.6757C130.044 38.603 130.351 39.306 130.971 39.7877C131.615 40.2803 132.406 40.5363 133.213 40.5129C133.933 40.5124 134.642 40.3367 135.279 40.0008C136.057 39.5807 136.793 39.0847 137.475 38.5199L138.375 40.1503C137.339 41.3489 136.115 42.3681 134.753 43.1674C133.507 43.9628 132.069 44.401 130.595 44.4351C129.514 44.468 128.439 44.2512 127.453 43.8012C126.65 43.4252 125.951 42.8547 125.42 42.1405C124.931 41.4779 124.575 40.7258 124.371 39.9261C124.175 39.1668 124.075 38.3856 124.072 37.601V17.3807L120.766 17.3946Z" fill="#EEE4CE"/>
<path d="M147.332 35.7437C147.297 36.5853 147.462 37.4232 147.812 38.1878C148.101 38.78 148.545 39.2814 149.096 39.6382C149.627 39.9763 150.216 40.2111 150.833 40.3302C151.473 40.4542 152.124 40.5154 152.776 40.5129C153.525 40.51 154.267 40.377 154.971 40.1199C155.669 39.8809 156.325 39.5345 156.917 39.093C157.417 38.729 157.861 38.2924 158.234 37.7975C158.506 37.4729 158.673 37.072 158.712 36.6488V21.7403C158.712 20.3729 158.529 19.4881 158.163 19.0859C157.803 18.6845 157.027 18.4215 155.828 18.3025V16.6805L164.685 13.8433V37.2605C164.685 38.5892 164.868 39.4647 165.234 39.8873C165.594 40.308 166.37 40.582 167.567 40.7011V42.3314L161.104 44.4434C160.584 43.8765 160.169 43.2203 159.878 42.5058C159.527 41.6219 159.237 40.7147 159.011 39.7905C157.901 41.2478 156.48 42.434 154.853 43.2615C153.276 44.0439 151.391 44.436 149.198 44.4379C148.29 44.4324 147.389 44.2696 146.536 43.9563C145.604 43.6131 144.742 43.1019 143.992 42.4477C143.176 41.7422 142.52 40.8669 142.071 39.8817C141.572 38.7505 141.327 37.5215 141.355 36.2834V21.7376C141.355 20.3702 141.172 19.4854 140.806 19.0832C140.449 18.6818 139.67 18.4188 138.474 18.2998V16.6805L147.329 13.8433L147.332 35.7437Z" fill="#EEE4CE"/>
<path d="M175.097 13.835C175.892 14.5178 176.511 15.7043 176.952 17.3946C177.422 19.2597 177.761 21.1558 177.967 23.069H178.088C178.167 22.8282 178.288 22.5154 178.447 22.1638C178.967 20.957 179.424 19.9421 179.819 19.1191C180.244 18.2509 180.744 17.4228 181.315 16.6445C181.876 15.8595 182.564 15.1754 183.351 14.6211C184.089 14.1056 184.967 13.8321 185.865 13.8377C188.536 13.8377 189.872 15.0242 189.874 17.3973C189.874 18.2028 189.462 18.9972 188.647 19.7833C188.273 20.1583 187.83 20.4551 187.342 20.657C186.854 20.8588 186.332 20.9617 185.804 20.9597C184.872 20.923 183.95 20.7611 183.06 20.4782C182.808 20.3885 182.546 20.3272 182.281 20.2955C181.481 20.2955 180.694 21.6535 179.918 24.3699C179.142 27.0862 178.754 30.8784 178.752 35.7463C178.725 37.6241 178.846 39.5012 179.111 41.3599L182.404 41.9632V43.5936H169.479V41.9632L172.772 41.3599V25.0647C172.772 23.0533 172.434 21.3427 171.757 19.9328C171.478 19.2787 171.008 18.7259 170.409 18.3485C169.81 17.9711 169.112 17.7871 168.406 17.8209V16.1905L175.097 13.835Z" fill="#EEE4CE"/>
<path d="M195.856 29.77C195.89 31.0287 196.092 32.2771 196.454 33.4819C196.799 34.64 197.336 35.731 198.04 36.7093C198.728 37.6672 199.616 38.4609 200.642 39.0344C201.724 39.6288 202.941 39.9302 204.173 39.9091C205.61 39.9091 206.707 39.6573 207.466 39.1535C208.442 38.4524 209.327 37.6313 210.101 36.7093C210.458 36.2664 210.677 36.0062 210.757 35.926L212.373 37.1937C210.737 39.6074 209.053 41.4177 207.318 42.6245C205.584 43.8314 203.44 44.4348 200.886 44.4348C199.287 44.4544 197.71 44.0598 196.306 43.2888C194.923 42.5177 193.728 41.4454 192.807 40.15C191.825 38.7787 191.083 37.248 190.612 35.6243C190.113 33.9393 189.861 32.19 189.863 30.4316C189.868 28.4699 190.12 26.5167 190.612 24.6188C191.09 22.7163 191.847 20.8961 192.857 19.2184C193.805 17.6241 195.115 16.2799 196.679 15.2962C198.252 14.3204 200.069 13.8181 201.915 13.8485C203.383 13.8294 204.836 14.1494 206.163 14.7841C207.427 15.3973 208.549 16.2715 209.456 17.35C210.38 18.448 211.1 19.7056 211.58 21.0619C212.072 22.4254 212.325 23.8652 212.326 25.3164L195.856 29.77ZM202.198 25.4215C203.394 25.1004 204.242 24.5781 204.741 23.8548C205.241 23.1314 205.491 22.0446 205.491 20.5941C205.491 19.105 205.079 17.959 204.264 17.1535C203.449 16.348 202.343 15.9467 201.001 15.9467C199.047 15.9467 197.601 17.003 196.663 19.1159C195.724 21.2288 195.256 23.935 195.258 27.2345L202.198 25.4215Z" fill="#EEE4CE"/>
<path d="M215.458 5.03015H213.688V4.43506H217.818L217.84 5.03015H216.081V9.18214L215.469 9.20147L215.458 5.03015ZM218.477 4.43506H219.188L220.897 8.43757L222.566 4.43506H223.257V9.1766H222.667V5.6862L221.243 9.15727H220.532L219.067 5.62524V9.1766H218.477V4.43506Z" fill="#EEE4CE"/>
</svg>

<svg width="224" height="45" fill="none" xmlns="http://www.w3.org/2000/svg"><path d="M15.08 43.937A14.937 14.937 0 0 1 4.349 39.43 15.03 15.03 0 0 1 .002 28.627c0-7.41 5.647-15.093 15.079-15.093h10.348a14.963 14.963 0 0 1 5.092-9.057 14.894 14.894 0 0 1 9.75-3.54v4.898c-3.695 0-8.677 2.415-9.867 7.714h9.86v4.898H30.13v10.195a15.03 15.03 0 0 1-4.346 10.804 14.965 14.965 0 0 1-10.703 4.49Zm0-25.505c-7.029 0-10.192 5.972-10.192 10.21a10.159 10.159 0 0 0 2.956 7.314 10.112 10.112 0 0 0 7.252 3.046 10.077 10.077 0 0 0 7.25-3.046 10.14 10.14 0 0 0 2.957-7.314V18.395l-10.222.037ZM60.272 43.591v-1.938l3.292-.481V3.754l-3.292-.482V1.335h21.72c2.634 0 4.489-.302 5.564-.905l3.293 12.918-2.272.553c-1.037-1.89-1.985-3.458-2.843-4.705a15.976 15.976 0 0 0-2.873-3.2 11 11 0 0 0-3.767-2.02 17.2 17.2 0 0 0-5.179-.695 9.196 9.196 0 0 0-3.051.481v16.78h3.532c1.829 0 3.165-.554 4.009-1.66.843-1.108 1.421-2.667 1.734-4.679h1.92v15.271h-1.92c-.28-2.295-.848-4.036-1.704-5.223-.856-1.187-2.203-1.78-4.04-1.78h-3.531v18.712l3.293.481v1.938l-13.885-.01ZM99.285 35.744a5.38 5.38 0 0 0 .478 2.444c.29.592.735 1.093 1.287 1.45.53.338 1.118.573 1.734.692a10.07 10.07 0 0 0 1.946.183 6.473 6.473 0 0 0 2.195-.393 7.112 7.112 0 0 0 1.943-1.019c.499-.363.943-.8 1.314-1.295.274-.324.442-.725.48-1.149V21.75c0-1.368-.181-2.253-.548-2.655-.368-.401-1.139-.664-2.336-.783v-1.63l8.856-2.838v23.418c0 1.328.183 2.204.549 2.626.356.421 1.136.695 2.332.814v1.63l-6.462 2.112a6.467 6.467 0 0 1-1.227-1.937 20.309 20.309 0 0 1-.867-2.715 12.167 12.167 0 0 1-4.16 3.47c-1.575.783-3.46 1.175-5.653 1.177a7.898 7.898 0 0 1-2.665-.482 8.123 8.123 0 0 1-2.54-1.508 7.468 7.468 0 0 1-1.922-2.566 8.436 8.436 0 0 1-.719-3.599V21.738c0-1.368-.183-2.253-.549-2.655-.36-.401-1.136-.664-2.332-.783v-1.62l8.855-2.837.011 21.9ZM120.766 17.395v-2.716h3.293V6.35l5.985-3.44v11.77h6.761v2.715h-6.761v20.28c0 .928.307 1.631.927 2.113a3.522 3.522 0 0 0 2.242.725c.72 0 1.429-.176 2.066-.512a13.5 13.5 0 0 0 2.196-1.481l.9 1.63a14.467 14.467 0 0 1-3.622 3.017 8.075 8.075 0 0 1-4.158 1.268 7.05 7.05 0 0 1-3.142-.634 5.374 5.374 0 0 1-2.033-1.66 6.387 6.387 0 0 1-1.049-2.215 9.447 9.447 0 0 1-.299-2.325v-20.22l-3.306.014ZM147.332 35.744a5.34 5.34 0 0 0 .48 2.444 3.617 3.617 0 0 0 1.284 1.45c.531.338 1.12.573 1.737.692.64.124 1.291.185 1.943.183a6.469 6.469 0 0 0 2.195-.393 7.104 7.104 0 0 0 1.946-1.027c.5-.364.944-.8 1.317-1.296.272-.324.439-.725.478-1.148V21.74c0-1.367-.183-2.252-.549-2.654-.36-.401-1.136-.664-2.335-.784V16.68l8.857-2.837v23.418c0 1.328.183 2.204.549 2.626.36.421 1.136.695 2.333.814v1.63l-6.463 2.112a6.484 6.484 0 0 1-1.226-1.937 20.645 20.645 0 0 1-.867-2.715 12.154 12.154 0 0 1-4.158 3.47c-1.577.783-3.462 1.175-5.655 1.177a7.86 7.86 0 0 1-2.662-.482 8.16 8.16 0 0 1-2.544-1.508 7.509 7.509 0 0 1-1.921-2.566 8.445 8.445 0 0 1-.716-3.599V21.738c0-1.368-.183-2.253-.549-2.655-.357-.401-1.136-.664-2.332-.783v-1.62l8.855-2.837.003 21.9ZM175.097 13.835c.795.683 1.414 1.87 1.855 3.56.47 1.865.809 3.76 1.015 5.674h.121c.079-.24.2-.554.359-.905a84.36 84.36 0 0 1 1.372-3.045c.425-.868.925-1.696 1.496-2.474a8.565 8.565 0 0 1 2.036-2.024 4.342 4.342 0 0 1 2.514-.783c2.671 0 4.007 1.186 4.009 3.56 0 .805-.412 1.6-1.227 2.385a4.005 4.005 0 0 1-2.843 1.177 10.406 10.406 0 0 1-2.744-.482 3.602 3.602 0 0 0-.779-.183c-.8 0-1.587 1.358-2.363 4.075-.776 2.716-1.164 6.508-1.166 11.376a36.098 36.098 0 0 0 .359 5.614l3.293.603v1.63h-12.925v-1.63l3.293-.603V25.065c0-2.012-.338-3.722-1.015-5.132a3.489 3.489 0 0 0-1.348-1.584 3.446 3.446 0 0 0-2.003-.528v-1.63l6.691-2.356ZM195.856 29.77c.034 1.259.236 2.507.598 3.712.345 1.158.882 2.249 1.586 3.227a8.026 8.026 0 0 0 2.602 2.325 7.082 7.082 0 0 0 3.531.875c1.437 0 2.534-.252 3.293-.755a14.441 14.441 0 0 0 2.635-2.445c.357-.443.576-.703.656-.783l1.616 1.268c-1.636 2.413-3.32 4.224-5.055 5.43-1.734 1.207-3.878 1.81-6.432 1.81a9.277 9.277 0 0 1-4.58-1.145 10.67 10.67 0 0 1-3.499-3.139 14.904 14.904 0 0 1-2.195-4.526 18.215 18.215 0 0 1-.749-5.192c.005-1.962.257-3.915.749-5.813a19.85 19.85 0 0 1 2.245-5.4 11.69 11.69 0 0 1 3.822-3.923 9.631 9.631 0 0 1 5.236-1.447c1.468-.02 2.921.3 4.248.935a10.016 10.016 0 0 1 3.293 2.566 11.965 11.965 0 0 1 2.124 3.712c.492 1.363.745 2.803.746 4.254l-16.47 4.454Zm6.342-4.348c1.196-.322 2.044-.844 2.543-1.567.5-.724.75-1.81.75-3.26 0-1.49-.412-2.636-1.227-3.441-.815-.806-1.921-1.207-3.263-1.207-1.954 0-3.4 1.056-4.338 3.169-.939 2.113-1.407 4.819-1.405 8.119l6.94-1.813ZM215.458 5.03h-1.77v-.595h4.13l.022.595h-1.759v4.152l-.612.02-.011-4.172Zm3.019-.595h.711l1.709 4.003 1.669-4.003h.691v4.742h-.59v-3.49l-1.424 3.47h-.711l-1.465-3.532v3.552h-.59V4.435Z" fill="#EEE4CE"/></svg>
